img/icons/corp2/9.svg

<svg width="41" height="41" viewBox="0 0 41 41" fill="none" xmlns="http://www.w3.org/2000/svg">
<path d="M40.4032 9.8815L31.1172 0.595169C30.3228 -0.19839 29.0296 -0.19839 28.2352 0.595169C27.8503 0.98013 27.6384 1.49257 27.6384 2.03708C27.6384 2.5816 27.8503 3.09319 28.2352 3.47815L28.9046 4.14761L1.64361 31.4089C-0.547871 33.5996 -0.547871 37.1656 1.64361 39.3563C2.73936 40.4521 4.17783 41 5.61716 41C7.05648 41 8.49496 40.4521 9.5907 39.3563L36.8517 12.0942L37.5211 12.7636C37.9188 13.1604 38.4405 13.3588 38.9622 13.3588C39.4839 13.3588 40.0056 13.1604 40.4032 12.7636C40.7881 12.3787 41 11.8662 41 11.3217C41 10.7772 40.7881 10.2665 40.4032 9.8815ZM16.0461 21.5764C16.2107 21.741 16.2107 22.0086 16.0461 22.1732C15.9634 22.256 15.8553 22.2973 15.7473 22.2973C15.6392 22.2973 15.5312 22.256 15.4484 22.1741L14.3569 21.0825L14.9538 20.4856L16.0461 21.5764ZM13.5136 24.109C13.6782 24.2736 13.6782 24.5412 13.5136 24.7059C13.4309 24.7886 13.3228 24.83 13.2148 24.83C13.1067 24.83 12.9986 24.7886 12.9159 24.7067L11.8244 23.6151L12.4212 23.0183L13.5136 24.109ZM10.9811 26.6416C11.1457 26.8063 11.1457 27.0739 10.9811 27.2385C10.8983 27.3212 10.7903 27.3626 10.6822 27.3626C10.5742 27.3626 10.4661 27.3212 10.3834 27.2393L9.29186 26.1478L9.88869 25.5509L10.9811 26.6416ZM8.44853 29.1743C8.61314 29.3389 8.61314 29.6065 8.44853 29.7711C8.3658 29.8539 8.25774 29.8952 8.14969 29.8952C8.04163 29.8952 7.93358 29.8539 7.85085 29.772L6.75933 28.6804L7.35616 28.0836L8.44853 29.1743ZM27.6384 18.9205H16.5189L19.422 16.0172L20.5135 17.1088C20.5962 17.1907 20.7043 17.2321 20.8123 17.2321C20.9204 17.2321 21.0285 17.1907 21.1112 17.1088C21.2758 16.9442 21.2758 16.6766 21.1112 16.5119L20.0197 15.4204L21.9554 13.4846L23.0469 14.5762C23.1288 14.6581 23.2368 14.6994 23.3449 14.6994C23.4529 14.6994 23.561 14.6581 23.6437 14.5762C23.8083 14.4115 23.8083 14.1439 23.6437 13.9793L22.5522 12.8877L24.4879 10.952L25.5794 12.0435C25.6613 12.1254 25.7694 12.1668 25.8774 12.1668C25.9855 12.1668 26.0935 12.1254 26.1762 12.0435C26.3409 11.8789 26.3409 11.6113 26.1762 11.4467L25.0847 10.3551L27.0204 8.41933L28.1119 9.51089C28.1938 9.59278 28.3019 9.63415 28.4099 9.63415C28.518 9.63415 28.626 9.59278 28.7088 9.51089C28.8734 9.34627 28.8734 9.07866 28.7088 8.91403L27.6173 7.82247L30.0983 5.34133L35.658 10.9013L27.6384 18.9205ZM39.2095 11.5691C39.0727 11.7058 38.8516 11.7058 38.7148 11.5691L29.4289 2.28275C29.3402 2.19411 29.3267 2.08943 29.3267 2.03624C29.3267 1.98305 29.3402 1.87837 29.4289 1.78973C29.4972 1.72135 29.5867 1.68758 29.6762 1.68758C29.7657 1.68758 29.8552 1.72135 29.9235 1.78973L39.2095 11.0761C39.2981 11.1647 39.3116 11.2694 39.3116 11.3226C39.3116 11.3758 39.2981 11.4804 39.2095 11.5691Z" fill="#343434"/>
</svg>

<svg width="41" height="41" fill="none" xmlns="http://www.w3.org/2000/svg"><path d="M40.403 9.882L31.117.595a2.042 2.042 0 0 0-2.882 0 2.026 2.026 0 0 0-.597 1.442c0 .545.212 1.056.597 1.441l.67.67-27.261 27.26a5.625 5.625 0 0 0 0 7.948A5.601 5.601 0 0 0 5.617 41a5.6 5.6 0 0 0 3.974-1.644l27.26-27.262.67.67c.398.396.92.595 1.441.595A2.034 2.034 0 0 0 41 11.322c0-.545-.212-1.055-.597-1.44zM16.046 21.576a.422.422 0 0 1-.598.598l-1.091-1.091.597-.597 1.092 1.09zm-2.532 2.533a.422.422 0 0 1-.598.598l-1.092-1.092.597-.597 1.093 1.091zm-2.533 2.533a.422.422 0 0 1-.598.597l-1.091-1.091.597-.597 1.092 1.09zM8.45 29.174a.422.422 0 0 1-.598.598L6.759 28.68l.597-.596 1.093 1.09zm19.19-10.253H16.52l2.903-2.904 1.091 1.092a.424.424 0 0 0 .598 0 .422.422 0 0 0 0-.597L20.02 15.42l1.935-1.935 1.092 1.091a.42.42 0 0 0 .597 0 .422.422 0 0 0 0-.597l-1.092-1.091 1.936-1.936 1.091 1.091a.42.42 0 0 0 .597 0 .422.422 0 0 0 0-.596l-1.091-1.092L27.02 8.42l1.092 1.092a.42.42 0 0 0 .597 0 .422.422 0 0 0 0-.597l-1.092-1.092 2.481-2.48 5.56 5.56-8.02 8.019zm11.57-7.352a.35.35 0 0 1-.494 0L29.43 2.283a.349.349 0 1 1 .495-.493l9.285 9.286a.349.349 0 0 1 0 .493z" fill="#343434"/></svg>
